X:1
T:Title
%%score ( 1 2 3 ) ( 4 5 6 )
L:1/8
M:4/4
K:Eb
V:1 treble nm="Choir Aahs, Staff"
V:2 treble 
V:3 treble 
V:4 bass nm="Choir Aahs, Staff-1"
V:5 bass 
V:6 bass 
V:1
 [EB]4 [EA]2 E2 | [EG]4 [DF]4 | E2 [EG]2 [EB]2 [Ee]2 | [Ee]4 [A,d]2 [Cc]2 | [FB]4 [Dc]4 | B6 z2 | %6
w: By~Joseph~Barnby * *||||||
 [B,G]2 [EG]2 [CB]2 [FA]2 | [EG]4 [DF]4 | [DF]4 [DG]2 [DA]2 | [Ec]4 [EB]4 | %10
w: ||||
 [DG]3 [DG] [G=A]2 [G=B]2 | [Gc]4 [GB]4 | [EA]4 [EG]2 [EF]2 | G6 z2 | E8 |] %15
w: |||||
V:2
 x8 | x8 | x8 | x8 | x8 | E4 z2 A2 | x8 | x8 | x8 | x8 | x8 | x8 | x8 | E4 D2 [DF]2 | x8 |] %15
V:3
 x8 | x8 | x8 | x8 | x8 | z4 F4 | x8 | x8 | x8 | x8 | x8 | x8 | x8 | x8 | x8 |] %15
V:4
 [E,G,]4 [C,A,]2 [C,A,]2 | B,6 z2 | [C,G,]2 [C,E,]2 [_D,G,]2 [D,G,]2 | [C,A,]4 [F,A,]2 [E,A,]2 | %4
 [D,A,]4 [B,,A,]4 | [C,G,]4 [D,F,]4 | E,2 [E,B,]2 [A,,C]2 [A,,C]2 | [B,,B,]4 [B,,B,]4 | %8
 [A,B,]4 [A,B,]2 [A,B,]2 | [G,B,]4 [G,B,]4 | [F,=B,]3 [F,B,] [F,C]2 [F,D]2 | [E,C]4 [E,_D]4 | %12
 [A,,C]4 [B,,B,]2 [C,=A,]2 | B,4 z4 | [E,G,]8 |] %15
V:5
 x8 | B,,4 z2 A,2 | x8 | x8 | x8 | x8 | x8 | x8 | x8 | x8 | x8 | x8 | x8 | B,,4- [B,,A,]4 | x8 |] %15
V:6
 x8 | z4 B,,4 | x8 | x8 | x8 | x8 | x8 | x8 | x8 | x8 | x8 | x8 | x8 | x8 | x8 |] %15

